X:1
T:the Duchess of Gordon
T:the Duchess of Gordon
T:William Marshall
C:William Marshall
%%score { ( 1 2 ) ( 3 4 ) }
L:1/8
M:3/4
K:Bb
V:1 treble 
V:2 treble 
V:3 bass 
V:4 bass 
V:1
"^Moderato" FG/A/ | [DFB]2 [B,FB]2 [B,DB]2 | d3{edcd} e [FBf]2 | c>d (3fed (3dcB | %4
 A2 G2 [B,F]{GFEF}[EG]/A/ | [B,FB]2 [B,FB]2 [B,DFB]2 | d3{edcd} e f2 | =e>b ag f>e | %8
 g2 f2 f{gfef}g/a/ | b2 f2 d2 | g2 e2 c^c | d>f ed{d} c>B | A2 G2 [B,F]{GFEF}[EG]/A/ | %13
 B2 B,2 [B,D]2 | [Ff]3 g/e/ [Fd]2 | F>e d2 d/>c/B/>c/ | [EFc]2 [DFB]2 |] d>e | f2 d2 [Bb]2 | %19
 f2 d2 [Bb]2 | gf ed cB | A2 G2 TFG/A/ | [DB]2 [DF]2 [DB]2 | d3{edcd} e f2 | =e>b ag f>e | %25
 [Bg]2 [Af]2 d>Te | f2 (3fdf [Bb]2 | g2 (3geg b2 | c>d e>d (3dcB | A2 G2 [B,F]G/A/ | B2 B,2 D2 | %31
 [Fcf]3 g/e/ [Fd]2 | F>e [Fd]2 d/>c/B/>c/ | [EFc]2 [DFB]2 |] %34
V:2
 x2 | x6 | F4 x2 | G2 G2 F2 | [B,E]4 x2 | x6 | F4 x2 | B4 x2 | B2 A2 B2 | B4 B2 | G2 G2 F2 | %11
 F2 F2 F2 | [B,E]4 x2 | x6 | x3 A x2 | F2 F2 [EA]2 | x4 |] x2 | B4 x2 | B4 x2 | B4 F2 | %21
 [B,E]4 B,2 | x6 | F4 [FB]2 | B4 x2 | x4 B2 | B4 x2 | B6 | G2 G2 F2 | [B,E]4 x2 | x6 | x2 A x3 | %32
 x4 [EA]2 | x4 |] %34
V:3
 z2 | [B,B]2 [Dd]2 [Ff]2 | b4 x2 | [Ee]2 [Cc]2 [Dd]2 | eEGB [Dd][Cc] | [B,B]2 [Dd]2 [Ff]2 | b4 x2 | %7
 x2 [gbc']2 [gbc']2 | fFfe f2 | [Bb]2 [db]2 [Bf_a]2 | [eg]2 [cg]2 [fa]2 | [bd']2 [db]2 [db]2 | %12
 eEBG [Dd][Cc] | [B,B]2 [B,B]2 [B,B]2 | [A,A]2 [F,F]2 [B,B]2 | [Dd]>[Ee] [Ff]2 [Ff]2 | B2 b2 |] %17
 z2 | Bbfbdb | Bbfbdb | Bbfbdb | eEGB [Dd][Cc] | [B,B]2 [B,B]2 [B,B]2 | [B,B]2 [Cc]2 [Dd]2 | %24
 c2 [gbc']2 [gbc']2 | fFfe f2 |{B} [Bb]2 [bd'f']2 z2 | [Ee]2 [be'g']2 x2 | [Ee]>[Dd] [Cc]2 [Dd]2 | %29
 eEGB [Dd][Cc] | [B,B]2 [B,B]2 [B,B]2 | [A,A]2 [F,F]2 [B,B]2 | [Dd]>[Ee] [Ff]2 [Ff]2 | B2 b2 |] %34
V:4
 x2 | x6 | B,,3 C, [D,B,]2 | x6 | x6 | x6 | B,,3 C, [D,B,]2 | C,6 | x4 D,C, | x6 | x6 | x6 | x6 | %13
 x6 | x6 | x6 | x4 |] x2 | B,,6 | B,,6 | B,,6 | x6 | x6 | x6 | C,,6 | x4 D,C, | x6 | x6 | x6 | x6 | %30
 x6 | x6 | x6 | x4 |] %34

